X:1
T:2. Barnevers om solen
T:2. Barnevers om solen
T:No. 3 i Læsebogen
T:Chr. Haslerud
T:N. Rolfsen
C:Chr. Haslerud
Z:N. Rolfsen
%%score [ 1 2 3 4 ]
L:1/8
Q:1/4=72
M:2/4
K:C
V:1 treble nm="Soprano"
V:2 treble nm="Alto"
V:3 treble-8 nm="Tenor"
V:4 bass nm="Bass"
V:1
!p!"^Lidt raskt" G A E F | G2 c z/ c/ | B d A B | A2 G z | G A E F | G c B c | d!<(! G (^F!<)!G) | %7
w: Lo- ve, lo- ve,|li- ne! Gid|so- len maat- te|skin- ne|o- ver mig og|o- ver mi- ne,|o- ver folk, _|
!>(! B2 A2!>)! | G3 z ||!p! c (B/A/) (BE) | (A/B/) (c/A/) B2 | c (B/A/) B E/ ^G/ | A3 z | %13
w: o- ver|fæ,|o- ver _ top, _|o- * ver _ træ,|o- ver _ asp, o- ver|al,|
 c (B/A/) (BE) | (A/B/) (c/A/) B2 | c (B/A/) B E/ ^G/ | A3 z |!mf! (ec) (dB) | %18
w: o- ver _ top, _|o- * ver _ træ,|o- ver _ asp, o- ver|al,|o- * ver _|
 (c/B/) A/ ^G/ (A/B/c/d/) | (ec) (dB) | (c/B/) A/ ^G/ A z | (ec) (dB) | (c/B/) A/ ^G/ (A/B/c/d/) | %23
w: berg, _ o- ver dal, _ _ _|o- * ver _|li- * er og skog,|o- * ver _|harv, _ o- ver plog, _ _ _|
 (ec) (dB) | (c/B/) A/ ^G/ A z ||!p! G A E F | G2 c z/ c/ | B c d G | e2 d z |!mf! c B A G | %30
w: o- * ver _|a- * ger og eng.|Lo- ve, lo- ve,|li- ne! Gid|so- len maat- te|skin- ne|o- ver mig og|
 A2 G2 |!p! c B A G | A2 G z/!f! G/ | E2 F G | A2 d2 | c4 | B4 | c4- | c2 z2 |] %39
w: mi- ne,|o- ver mig og|mi- ne, og|o- ver min|e- gen|mam-|mas|seng.|_|
V:2
!p! E E C C | C2 E z/ E/ | D D B, B, | C2 C z | E E C C | C E F E | D!<(! D!<)! D2 | %7
w: Lo- ve, lo- ve,|li- ne! Gid|so- len maat- te|skin- ne|o- ver mig og|o- ver mi- ne,|o- ver folk,|
!>(! G2 ^F2!>)! | D3 z ||!p! =F F E2 | E E ^G2 | E F E E/ E/ | E3 z | F F E2 | E E ^G2 | %15
w: o- ver|fæ,|o- ver top,|o- ver træ,|o- ver asp, o- ver|al,|o- ver top,|o- ver træ,|
 E F E E/ E/ | E3 z |!mf! c2 B2 | (A/^G/) E/ E/ (E/G/A/B/) | c2 B2 | (A/E/) E/ E/ E z | c2 B2 | %22
w: o- ver asp, o- ver|al,|o- ver|berg, _ o- ver dal, _ _ _|o- ver|li- * er og skog,|o- ver|
 (A/^G/) E/ E/ (E/G/A/B/) | c2 B2 | (A/E/) E/ E/ E z ||!p! E E C C | C2 E z/ G/ | G G G G | %28
w: harv, _ o- ver plog, _ _ _|o- ver|a- * ger og eng.|Lo- ve, lo- ve,|li- ne! Gid|so- len maat- te|
 G2 G z |!mf! E D C G | (FD) E2 |!p! E D C G | (FD) E z/!f! E/ | C2 C C | C2 A2 | G4 | G4 | G4- | %38
w: skin- ne|o- ver mig og|mi- * ne,|o- ver mig og|mi- * ne, og|o- ver min|e- gen|mam-|mas|seng.|
 G2 z2 |] %39
w: _|
V:3
!p! c c G G | G2 G z/ G/ | G B G G | G2 G z | c c G G | G G G G | B!<(! B (c!<)!B) | %7
w: Lo- ve, lo- ve,|li- ne! Gid|so- len maat- te|skin- ne|o- ver mig og|o- ver mi- ne,|o- ver folk, _|
!>(! d2 c2!>)! | B3 z ||!p! d d (^Ge) | c c e2 | c d ^G G/ B/ | c3 z | d d (^Ge) | c c e2 | %15
w: o- ver|fæ,|o- ver top, _|o- ver træ,|o- ver asp, o- ver|al,|o- ver top, _|o- ver træ,|
 c d ^G G/ B/ | c3 z |!mf! e2 e2 | (e/d/) e/ e/ (e>d) | e2 e2 | (e/d/) c/ B/ c z | e2 e2 | %22
w: o- ver asp, o- ver|al,|o- ver|berg, _ o- ver dal, _|o- ver|li- * er og skog,|o- ver|
 (e/d/) e/ e/ (e>d) | e2 e2 | (e/d/) c/ B/ c z ||!p! c c G G | G2 G z/ c/ | d c B d | c2 B z | %29
w: harv, _ o- ver plog, _|o- ver|a- * ger og eng.|Lo- ve, lo- ve,|li- ne! Gid|so- len maat- te|skin- ne|
!mf! G ^G A c | (cB) c2 |!p! G ^G A c | (cB) c z/!f! c/ | G2 G G | F2 f2 | e4 | f4 | e4- | e2 z2 |] %39
w: o- ver mig og|mi- * ne,|o- ver mig og|mi- * ne, og|o- ver min|e- gen|mam-|mas|seng.|_|
V:4
!p! C, C, C, D, | E,2 C, z/ C,/ | G, G, F, F, | E,2 E, z | C, C, C, D, | E, C, D, E, | %6
w: Lo- ve, lo- ve,|li- ne! Gid|so- len maat- te|skin- ne|o- ver mig og|o- ver mi- ne,|
 G,!<(! G, (A,!<)!G,) |!>(! D,2 D,2!>)! | G,3 z ||!p! D, D, E,2 | A, A, (E,/^F,/^G,/E,/) | %11
w: o- ver folk, _|o- ver|fæ,|o- ver top,|o- ver træ, _ _ _|
 A, D, E, E,/ E,/ | A,3 z | D, D, E,2 | A, A, (E,/^F,/^G,/E,/) | A, D, E, E,/ E,/ | A,3 z | %17
w: o- ver asp, o- ver|al,|o- ver top,|o- ver træ, _ _ _|o- ver asp, o- ver|al,|
!mf! (A,/B,/C/A,/) (^G,/A,/B,/G,/) | (A,/B,/) C/ D/ (C/D/C/B,/) | (A,/B,/C/A,/) (^G,/A,/B,/G,/) | %20
w: o- * * * ver _ _ _|berg, _ o- ver dal, _ _ _|o- * * * ver _ _ _|
 (A,/^G,/) A,/ E,/ A, z | (A,/B,/C/A,/) (^G,/A,/B,/G,/) | (A,/B,/) C/ D/ (C/D/C/B,/) | %23
w: li- * er og skog,|o- * * * ver _ _ _|harv, _ o- ver plog, _ _ _|
 (A,/B,/C/A,/) (^G,/A,/B,/G,/) | (A,/^G,/) A,/ E,/ A, z ||!p! C, C, C, D, | E,2 C, z/ E,/ | %27
w: o- * * * ver _ _ _|a- * ger og eng.|Lo- ve, lo- ve,|li- ne! Gid|
 F, E, G, B,, | C,2 G, z |!mf! C, E, F, E, | F,2 C,2 |!p! C, E, F, E, | F,2 C, z/!f! C,/ | %33
w: so- len maat- te|skin- ne|o- ver mig og|mi- ne,|o- ver mig og|mi- ne, og|
 C,2 D, E, | F,2 F,2 | G,4 | G,4 | C,4- | C,2 z2 |] %39
w: o- ver min|e- gen|mam-|mas|seng.|_|

